X: 37925
T: Souvenir, The
R: hornpipe
M: 4/4
K: Dmajor
|:AG|FDAD FDAF|GDBD GDBD|AEcA eAcA|df (3afa d'afd|
FDAD FDAF|GDBD GDBD|Acea c'age|(3ded fe d2:|
|:d'c'bg dg (3bgb|d'baf dfa2|gfec Aceg|bd'a2 (3faf (3ded|
A2 (3Bcd gbAd|faGB dgFA|df (3BAB (3cBc (3dcd|(3ede (3fdA (3FAF D2:|

